src/images/dewynters-de.svg

<svg width="123" height="26" viewBox="0 0 123 26" fill="none" xmlns="http://www.w3.org/2000/svg">
<path d="M115.61 11.6918C114.792 11.6918 114.057 11.5283 113.321 11.1195C112.748 10.7925 112.421 10.5472 111.522 9.81132L110.541 12.8365L107.679 8.66667C108.333 8.42138 108.824 8.25786 109.151 8.01258C109.887 7.52201 110.377 6.86792 110.623 6.13208C110.786 6.94969 111.113 7.60377 111.686 8.09434C112.421 8.74843 113.73 9.32076 115.201 9.56604L115.774 9.6478C116.918 9.81132 117.327 10.1384 117.327 10.6289C117.327 11.283 116.673 11.6918 115.61 11.6918ZM104 6.94969H103.019V3.84277H103.836C104.981 3.84277 105.717 4.41509 105.717 5.39623C105.799 6.37736 105.063 6.94969 104 6.94969ZM7.84906 10.3836C7.35849 10.7925 6.62264 11.1195 6.05031 11.1195H5.06918V4.66038H5.88679C7.52201 4.66038 8.66667 5.96855 8.66667 7.84906C8.66667 8.99371 8.42138 9.81132 7.84906 10.3836ZM120.925 6.94969C120.434 6.54088 120.352 6.45912 119.943 6.2956C119.698 6.21384 119.616 6.21384 119.453 6.13208C119.126 5.96855 118.39 5.80503 117.082 5.55975H117C116.101 5.39623 115.692 5.06918 115.692 4.49686C115.692 4.00629 116.101 3.67924 116.918 3.67924C117.899 3.67924 118.635 3.92453 120.27 4.57862L121.579 1.14465C119.698 0.327044 118.553 0 117.164 0C113.893 0 111.522 1.4717 110.868 3.92453C110.541 1.63522 108.742 0.490566 105.717 0.490566H98.0314V11.6101H91.7358V9.72956H95.9057V6.05031H91.7358V4.16981H96.7233V0.490566H67.6981V7.7673H67.6163L63.4465 0.490566H53.2264L51.2641 4.49686L49.3019 0.490566H40.6352L38.7547 8.33962H38.673L36.7924 0.490566H32.4591L30.4969 8.33962H30.4151L28.5346 0.490566H13.8176V6.62264C13.327 2.9434 10.5472 0.572327 6.7044 0.572327H0V15.2893H6.78616C10.6289 15.2893 13.327 12.8365 13.8176 9.15723V15.2893H24.5283V11.6918H18.8868V9.81132H23.0566V6.05031H18.8868V4.16981H24.5283L27.5535 15.2075H32.6226L34.5849 6.78616H34.6667L36.5472 15.2075H41.6164L44.9686 2.77987L48.8931 8.74843V15.2075H53.9623V8.74843L58.4591 1.79874V15.2893H63.5283V8.01258H63.6101L67.7799 15.2893H72.8491V4.16981H77.4277V15.2893H82.4151V4.16981H86.7484V15.2893H103.182V9.56604H103.264L106.371 15.2893H112.34L111.686 14.3899C111.849 14.4717 112.013 14.5535 112.258 14.6352C113.566 15.2893 114.792 15.6164 116.101 15.6164C119.698 15.6164 122.314 13.327 122.314 10.1384C122.151 8.74843 121.824 7.7673 120.925 6.94969Z" fill="#484848"/>
<path d="M30.1698 19.1321C31.3145 19.1321 32.1321 19.6226 32.7044 20.3585L32.0503 20.7673C31.6415 20.2767 30.9057 19.8679 30.1698 19.8679C28.6981 19.8679 27.6352 20.9308 27.6352 22.566C27.6352 24.1195 28.6981 25.2642 30.1698 25.2642C30.9874 25.2642 31.6415 24.8554 31.8868 24.5283V23.2201H29.6793V22.4843H32.7044V24.8554C32.1321 25.5094 31.2327 26 30.1698 26C28.2893 26 26.8176 24.6101 26.8176 22.6478C26.8176 20.4403 28.2893 19.1321 30.1698 19.1321Z" fill="#484848"/>
<path d="M38.0189 19.2138H42.2705V19.9497H38.8365V22.0755H42.2705V22.8113H38.8365V25.1006H42.2705V25.8365H38.0189V19.2138Z" fill="#484848"/>
<path d="M49.629 23.1384H48.3208V25.7547H47.5032V19.2138H50.1195C51.3459 19.2138 52.1636 19.9497 52.1636 21.1761C52.1636 22.3208 51.3459 22.9748 50.4466 23.0566L52.2453 25.7547H51.2642L49.629 23.1384ZM50.0378 19.9497H48.3208V22.4843H50.0378C50.7736 22.4843 51.3459 21.9937 51.3459 21.2579C51.3459 20.522 50.7736 19.9497 50.0378 19.9497Z" fill="#484848"/>
<path d="M62.956 20.2767L60.7484 25.7547H60.4214L58.2139 20.2767V25.7547H57.3962V19.2138H58.5409L60.5849 24.2013L62.6289 19.2138H63.7736V25.7547H62.956V20.2767Z" fill="#484848"/>
<path d="M73.3396 24.283H69.9874L69.4969 25.7547H68.5975L71.2139 19.2138H72.195L74.8113 25.7547H73.912L73.3396 24.283ZM70.3145 23.5472H73.1761L71.7862 19.9497L70.3145 23.5472Z" fill="#484848"/>
<path d="M80.4529 20.4403V25.7547H79.6353V19.2138H80.4529L84.2139 24.3648V19.2138H85.0315V25.7547H84.2139L80.4529 20.4403Z" fill="#484848"/>
<path d="M92.3899 22.9748L89.7736 19.2138H90.7547L92.7987 22.239L94.8428 19.2138H95.8239L93.2075 22.9748V25.7547H92.3899V22.9748Z" fill="#484848"/>
</svg>

<svg id="Layer_1" data-name="Layer 1" xmlns="http://www.w3.org/2000/svg" viewBox="0 0 122.31 26"><defs><style>.cls-1{fill:#484848;}</style></defs><title>dewynters-de</title><path class="cls-1" d="M115.61,11.69a4.53,4.53,0,0,1-2.29-.57,11.55,11.55,0,0,1-1.8-1.31l-1,3-2.86-4.17A6.41,6.41,0,0,0,109.15,8a3.64,3.64,0,0,0,1.47-1.88,3.31,3.31,0,0,0,1.06,2,7.37,7.37,0,0,0,3.51,1.47l.57.08c1.14.16,1.55.49,1.55,1C117.33,11.28,116.67,11.69,115.61,11.69ZM104,6.95h-1V3.84h.82c1.15,0,1.88.57,1.88,1.55S105.06,6.95,104,6.95ZM7.85,10.38a3.15,3.15,0,0,1-1.8.74h-1V4.66h.82C7.52,4.66,8.67,6,8.67,7.85A3.38,3.38,0,0,1,7.85,10.38ZM120.93,6.95a2.91,2.91,0,0,0-1-.65,3.39,3.39,0,0,1-.49-.16,12,12,0,0,0-2.37-.57H117c-.9-.16-1.31-.49-1.31-1.06s.41-.82,1.23-.82a8.52,8.52,0,0,1,3.35.9l1.31-3.43A10.38,10.38,0,0,0,117.16,0c-3.27,0-5.64,1.47-6.3,3.92-.33-2.29-2.13-3.43-5.15-3.43H98V11.61h-6.3V9.73h4.17V6.05H91.74V4.17h5V.49h-29V7.77h-.08L63.45.49H53.23l-2,4-2-4H40.64L38.75,8.34h-.08L36.79.49H32.46l-2,7.85h-.08L28.53.49H13.82V6.62A6.78,6.78,0,0,0,6.7.57H0V15.29H6.79a6.76,6.76,0,0,0,7-6.13v6.13H24.53v-3.6H18.89V9.81h4.17V6.05H18.89V4.17h5.64l3,11h5.07l2-8.42h.08l1.88,8.42h5.07L45,2.78l3.92,6v6.46H54V8.75l4.5-6.95V15.29h5.07V8h.08l4.17,7.28h5.07V4.17h4.58V15.29h5V4.17h4.33V15.29h16.43V9.57h.08l3.11,5.72h6l-.65-.9a4,4,0,0,0,.57.25,8.38,8.38,0,0,0,3.84,1c3.6,0,6.21-2.29,6.21-5.48A4.62,4.62,0,0,0,120.93,6.95Z"/><path class="cls-1" d="M30.17,19.13a3.06,3.06,0,0,1,2.53,1.23l-.65.41a2.59,2.59,0,0,0-1.88-.9,2.49,2.49,0,0,0-2.53,2.7,2.54,2.54,0,0,0,2.53,2.7,2.26,2.26,0,0,0,1.72-.74V23.22H29.68v-.74h3v2.37A3.37,3.37,0,0,1,30.17,26a3.27,3.27,0,0,1-3.35-3.35A3.26,3.26,0,0,1,30.17,19.13Z"/><path class="cls-1" d="M38,19.21h4.25v.74H38.84v2.13h3.43v.74H38.84V25.1h3.43v.74H38Z"/><path class="cls-1" d="M49.63,23.14H48.32v2.62H47.5V19.21h2.62a1.87,1.87,0,0,1,2,2,1.82,1.82,0,0,1-1.72,1.88l1.8,2.7h-1ZM50,19.95H48.32v2.53H50a1.23,1.23,0,0,0,1.31-1.23A1.29,1.29,0,0,0,50,19.95Z"/><path class="cls-1" d="M63,20.28l-2.21,5.48h-.33l-2.21-5.48v5.48H57.4V19.21h1.14l2,5,2-5h1.14v6.54H63Z"/><path class="cls-1" d="M73.34,24.28H70l-.49,1.47h-.9l2.62-6.54h1l2.62,6.54h-.9Zm-3-.74h2.86l-1.39-3.6Z"/><path class="cls-1" d="M80.45,20.44v5.31h-.82V19.21h.82l3.76,5.15V19.21H85v6.54h-.82Z"/><path class="cls-1" d="M92.39,23l-2.62-3.76h1l2,3,2-3h1L93.21,23v2.78h-.82Z"/></svg>
